!!!ONB: MCCC : IEG0086_02 : Extracted Monophonic Melody
!!!COM: Grieg, Edvard
!!!OPR: Piano Sonata
!!!OMV: 2
!!!SCT: Op.7
!!!ODT: 1865///
**kern
*staff1
*IPiano
*clefG2
*k[]
*C:
*met(c)
*M4/4
4cc
8.b
16a
4b
=2
4g
8.e
16f
4.g
8e
=3
4c
8.e
16e
4A
8c
8e
=4
[8.g
16g]
8f#
8e
4g
4g
=5
4r
4ccc
8.bb
16aa
4bb
=6
4gg
8.ee
16ff
4.gg
8ee
=7
4cc
8.ee
16ee
4aa
8gg
8gg
=8
4a
4ff
8ee
24cc
12ee
6dd
12ee
=9
*M12/8
[2.cc
4.cc]
4g
8a
=10
4.b-
4a
8g
4.cc
4g
8a
=11
8.cc
8.b-
8.a
8.g
8.dd
8.cc
8.g
8.a
=12
4.bb-
4.aa
4.gg#
4.aa
=13
[2.ddd
4.ddd]
4a
8b
=14
4.cc
4b
8a
4.dd
4a
8b
=15
8.dd
8.cc
8.b
8.a
8.ee
8.dd
8.a
8.b
=16
4.ccc
4.bb
4.aa#
4.bb
=17
16ee
16ff#
16gg
16ff#
16ee
16dd#
16b
16dd#
16ee
16ff#
8gg
16ff#
16gg
16ff#
16dd#
16b
16dd#
4.ff#
=18
16ee
16ff#
16gg
16ff#
16ee
16cc#
16b
16cc#
16ee
16ff#
8gg
16ff#
16gg
16ff#
16dd
16b
16dd
4.ff#
=19
16ff
16gg
16aa
16gg
16ff
16dd
16b
16dd
16ff
16gg
16aa
16r
16aa
16bb
16ccc
16bb
16aa
16ff
16dd
16ff
16aa
16bb
16ccc
16r
=20
16bb
16ccc
16ddd
16ccc
16bb
16ff#
16dd
16ff#
16bb
16ccc
16ddd
16ccc
16bb
16ff#
16dd
16cc
16b
16f#
=21
8d
16d
16e
8f#
8d
4f#
8d
16d
16e
8f#
4.d
=22
8f#
16f#
16g#
8a#
8f#
4a#
8f#
16f#
16g#
8a#
4.f#
=23
16a
16b
16dd
16cc#
16b
16cc#
24a
24b
24dd
4cc#
16a
16b
16dd
16cc#
16b
16cc#
4.a
=24
16aa
16bb
16ddd
16bb
16aa
16bb
16aa
16bb
16ddd
16bb
16aa
16bb
16aa
16bb
16ddd
16bb
16aa
16bb
16aa
16bb
16ddd
16bb
16aa
16bb
=25
16aa
16bb
16ddd
16bb
16aa
16bb
16aa
16bb
16ddd
16bb
16aa
16ff
16dd
16b
16a
16f
16d
16B
=26
4r
8r
4.ccc
4bb
8aa
4.bb
=27
4.gg
4ee
8ff
4.gg[
4gg]
8ee
=28
4.cc
4ee
8ee
4.a
4cc
8ee
=29
4.gg
4ff#
8ee
4.gg
4.gg
=30
16cc
16gg
16ee
16gg
16ee
16gg
4.ccc
4bb
8aa
4.bb
=31
4.gg
4ee
16ff
16cc
4.gg[
4gg]
8gg
=32
4gg
8ff
4cc
8dd
4.ee-
4dd
8cc
=33
2.cc[
4.cc]
4.b
=34
1.cc[
=35
1.cc]
=36
16ccc
16bb
16bb-
16aa
16aa-
16gg
16gg-
16ff
16ee
16ee-
16dd
16dd-
16cc
16b
16b-
16a
16a-
16g
16g-
16f
16e
16e-
16d
16d-
=37
16c
16B
16B-
16A
16A-
16G
16G-
16F
16E
16E-
16D
16D-
16C
16D
16E-
16A-
16C
16D
16E-
16G
16C
16D
16E-
16F
=38
4r
8gg
4bb-
8aa
4r
8aa
4ccc
8bb
=39
8r
8aaa
8bb
8r
8aaa-
8bb
8r
8ggg
8bb
16e
16b
16e-
16b
16d
16b
=40
2.cc
8c
8e
8e
4.cc]
8e
4g
8a
=41
8.cc
8.b
8.a
8.g
4.b-
4f
8g
=42
2.r
8.b-
8.a
8.g
8.f
4.a
4e
8f#
=43
2.g
2.g
=44
4.c
4.G
4.G
4.G
=45
8G
8d
8g
8G
8d
8g
8F
8d
8f
8F
8d
8f
=46
8F
8c
8f
8F
8c
8f
8E
8c
8e
8E
8c
8e
=47
4.E
4.G
4.F#
4.F#
=48
4.F
2.f
4.f
8ee]
8cc
8ee
4dd
8ee
=49
2.cc
2.b
=50
2.a
2.e
=51
2.f
2.e
=52
2.d
2.d
=53
8r
8c
8r
8c
8r
8c
8r
8c
=54
8r
8E
8c
2.e[
4.e]
=55
1.cc
==
*-
